src/pos-icons/email-open-outline.svg

<svg height="24" viewBox="0 0 24 24" width="24" xmlns="http://www.w3.org/2000/svg"><path d="m21.03 6.29-9.03-5.65-9.03 5.65c-.58.35-.97.98-.97 1.71v10c0 1.1.9 2 2 2h16c1.1 0 2-.9 2-2v-10c0-.73-.39-1.36-.97-1.71m-1.03 11.71h-16v-8l8 5 8-5zm-8-5-8-5 8-5 8 5z"/></svg>

<?xml version="1.0" encoding="UTF-8"?><!DOCTYPE svg PUBLIC "-//W3C//DTD SVG 1.1//EN" "http://www.w3.org/Graphics/SVG/1.1/DTD/svg11.dtd"><svg xmlns="http://www.w3.org/2000/svg" xmlns:xlink="http://www.w3.org/1999/xlink" version="1.1" id="mdi-email-open-outline" width="24" height="24" viewBox="0 0 24 24"><path d="M21.03 6.29L12 .64L2.97 6.29C2.39 6.64 2 7.27 2 8V18C2 19.1 2.9 20 4 20H20C21.1 20 22 19.1 22 18V8C22 7.27 21.61 6.64 21.03 6.29M20 18H4V10L12 15L20 10V18M12 13L4 8L12 3L20 8L12 13Z" /></svg>
